X:33
T:My Darling Asleep
R:Jig
M:6/8
L:1/8
K:D
fdd cAA|BAG A2 G|FAA def|gfg eag|fdd cAA|BAG A2 G|FAA def|1gec d2 e:|2ge
c dAG|:FAA BAG|FAF BAG|FAA def|gfg eag|fdd cAA|BAG A2 G|FAA def|gec d3:|
